X:121
T:Hunter's House
M:4/4
L:1/8
R:reel
C:Ed Reavy
D:Music at Matt Molloy's
K:G
|:BddB cAFA|G2BG AGEG|BddB cAFA|GBAG FGEF|
DGBG cGBG|cBAF GABc|defg agfd|cAFA G3A:|
|:B2gB aBgB|B2gf edcB|Aa~a2 baaf|dfaf gfed|
B2gB aBgB|B2gf edcB|1 cBAg fdBd|cAFA GBdc:|2 cBAg fgaf|gdBd cAFA||
%%text `A' Variations
Bd~d2 cAFA|G2BG DGBG|Bd~d2 cAFA|GBAG FGEF|
DG~G2 BG~G2|BGAF GABc|defg agfd|cAFA G3A:|
